svgs/light/pallet-boxes.svg

<svg xmlns="http://www.w3.org/2000/svg" viewBox="0 0 640 512"><!--! Font Awesome Pro 6.3.0 by @fontawesome - https://fontawesome.com License - https://fontawesome.com/license (Commercial License) Copyright 2023 Fonticons, Inc. --><path d="M448 288h64c35.35 0 64-28.65 64-64V128c0-35.35-28.65-64-64-64h-64c-35.35 0-64 28.65-64 64v96C384 259.3 412.7 288 448 288zM416 128c0-17.64 14.36-32 32-32h64c17.64 0 32 14.36 32 32v96c0 17.64-14.36 32-32 32h-64c-17.64 0-32-14.36-32-32V128zM128 288h160c35.35 0 64-28.65 64-64V64c0-35.35-28.65-64-64-64L128 0C92.65 0 64 28.65 64 64v160C64 259.3 92.65 288 128 288zM96 64c0-17.64 14.36-32 32-32h160c17.64 0 32 14.36 32 32v160c0 17.64-14.36 32-32 32H128C110.4 256 96 241.6 96 224V64zM624 480h-64v-96h64c8.844 0 16-7.156 16-16S632.8 352 624 352h-608C7.156 352 0 359.2 0 368S7.156 384 16 384h64v96h-64C7.156 480 0 487.2 0 496S7.156 512 16 512h608c8.844 0 16-7.156 16-16S632.8 480 624 480zM304 480h-192v-96h192V480zM528 480h-192v-96h192V480z"/></svg>

<svg xmlns="http://www.w3.org/2000/svg" viewBox="0 0 640 512"><!-- Font Awesome Pro 6.0.0-alpha2 by @fontawesome - https://fontawesome.com License - https://fontawesome.com/license (Commercial License) --><path d="M448 288H512C547 288 576 259 576 224V128C576 93 547 64 512 64H448C413 64 384 93 384 128V224C384 259 413 288 448 288ZM416 128C416 110 430 96 448 96H512C530 96 544 110 544 128V224C544 242 530 256 512 256H448C430 256 416 242 416 224V128ZM128 288H288C323 288 352 259 352 224V64C352 29 323 0 288 0H128C93 0 64 29 64 64V224C64 259 93 288 128 288ZM96 64C96 46 110 32 128 32H288C306 32 320 46 320 64V224C320 242 306 256 288 256H128C110 256 96 242 96 224V64ZM624 480H560V384H624C633 384 640 377 640 368S633 352 624 352H16C7 352 0 359 0 368S7 384 16 384H80V480H16C7 480 0 487 0 496S7 512 16 512H624C633 512 640 505 640 496S633 480 624 480ZM304 480H112V384H304V480ZM528 480H336V384H528V480Z"/></svg>
